!!!!SEGMENT: pl-kk--kk-i-7--116_anonim--nicolai-solemnia.krn
!!!cenid: 16xx:955
!!!COM: Anonim
!!!COM-rismID: pe30004985
!!!CDT:
!!!CNT:
!!!OTL: Nicolai solemnia
!!!PDT: 1664
!!!AGN: Sacred
!!!SMS-siglum: PL-Kk
!!!SMS-shelfmark: Kk.I.7
!!!SMS-shelfwork: 116 W
!!!SMS-variant:
!!!SMS-altvar:
!!!NIFC-rismSourceID: 300258077
!!!NIFC-rismChildID: 300258193
!!!NIFC-islandoraID: pl-kk:1956
!!!URL-pdf-islandora: https://repozytorium.nifc.pl/islandora/object/pl-kk%3A1956/datastream/PDF/view
!!!URL-scan: https://polish.musicsources.pl/pl/lokalizacje/galeria/rekopisy/6140 @EN{Scan on Polish Music Sources Website} @PL{Skany w portalu Dziedzictwo Muzyki Polskiej w otwartym dostępie}
!!!ONB-nifc: UWAGA: C (skan 0085, s.162), A (0163, s.146), T (0250, s.162), B (0337, s.158).
!!!AIN: 1 alto 1 bass 1 soprn 1 tenor
!!!key:
**kern	**text	**text	**text	**text	**text	**text	**kern	**text	**text	**text	**text	**text	**text	**kern	**text	**text	**text	**text	**text	**text	**kern	**text	**text	**text	**text	**text	**text
*part4	*part4	*part4	*part4	*part4	*part4	*part4	*part3	*part3	*part3	*part3	*part3	*part3	*part3	*part2	*part2	*part2	*part2	*part2	*part2	*part2	*part1	*part1	*part1	*part1	*part1	*part1	*part1
*staff4	*staff4	*staff4	*staff4	*staff4	*staff4	*staff4	*staff3	*staff3	*staff3	*staff3	*staff3	*staff3	*staff3	*staff2	*staff2	*staff2	*staff2	*staff2	*staff2	*staff2	*staff1	*staff1	*staff1	*staff1	*staff1	*staff1	*staff1
*	*verse1	*verse2	*verse3	*verse4	*verse5	*verse6	*	*verse1	*verse2	*verse3	*verse4	*verse5	*verse6	*	*verse1	*verse2	*verse3	*verse4	*verse5	*verse6	*	*verse1	*verse2	*verse3	*verse4	*verse5	*verse6
*Ibass	*	*	*	*	*	*	*Itenor	*	*	*	*	*	*	*Ialto	*	*	*	*	*	*	*Isoprn	*	*	*	*	*	*
*I"BASSVS.	*	*	*	*	*	*	*I"TENOR.	*	*	*	*	*	*	*I"ALTVS.	*	*	*	*	*	*	*I"CANTVS.	*	*	*	*	*	*
*I'B	*	*	*	*	*	*	*I'T	*	*	*	*	*	*	*I'A	*	*	*	*	*	*	*I'C	*	*	*	*	*	*
*clefF3	*	*	*	*	*	*	*clefC4	*	*	*	*	*	*	*clefC3	*	*	*	*	*	*	*clefC3	*	*	*	*	*	*
*k[]	*	*	*	*	*	*	*k[]	*	*	*	*	*	*	*k[]	*	*	*	*	*	*	*k[]	*	*	*	*	*	*
*C:	*	*	*	*	*	*	*C:	*	*	*	*	*	*	*C:	*	*	*	*	*	*	*C:	*	*	*	*	*	*
*M2/1	*	*	*	*	*	*	*M2/1	*	*	*	*	*	*	*M2/1	*	*	*	*	*	*	*M2/1	*	*	*	*	*	*
*met(C|)	*	*	*	*	*	*	*met(C|)	*	*	*	*	*	*	*met(C|)	*	*	*	*	*	*	*met(C|)	*	*	*	*	*	*
=1-	=1-	=1-	=1-	=1-	=1-	=1-	=1-	=1-	=1-	=1-	=1-	=1-	=1-	=1-	=1-	=1-	=1-	=1-	=1-	=1-	=1-	=1-	=1-	=1-	=1-	=1-	=1-
*2\right	*	*	*	*	*	*	*2\right	*	*	*	*	*	*	*2\right	*	*	*	*	*	*	*2\right	*	*	*	*	*	*
!	!	!	!	!	!	!	!	!	!	!	!	!	!	!LO:TX:a:t=Tenore ⟨..⟩ alto 2do.	!	!	!	!	!	!	!LO:TX:a:t=alto 1mo.	!	!	!	!	!	!
!LO:TX:a:t=Pro Solemnitate S[ancti]. Nicolai Epi[scopi] et Confe[ssori] A.D. 1664 ⟨...⟩. gbris.	!	!	!	!	!	!	!LO:TX:a:t=Pro Solemnitate S[ancti]. Nicolai. 1664 Vltima g'bris.	!	!	!	!	!	!	!LO:TX:a:t=Pro Solemnitate S[ancti]. Nicolai Epi[scopi] et Confe[ssori] 1664 Ultima Noul Conf⟨....⟩.	!	!	!	!	!	!	!LO:TX:a:t=Pro Solemnitate S[ancti]. Nicolai Epi[scopi] et Confe[ssori]. 1664 Vltima gb'ris.	!	!	!	!	!	!
!LO:TX:t=P:problem= inicjał "N" na pięciolinii przed kluczem	!	!	!	!	!	!	!LO:TX:t=P:problem= inicjał "N" na pięciolinii przed kluczem	!	!	!	!	!	!	!LO:TX:t=P:problem= inicjał "N" na pięciolinii przed kluczem	!	!	!	!	!	!	!LO:TX:t=P:problem= inicjał "N" na pięciolinii przed kluczem	!	!	!	!	!	!
2r	.	.	.	.	.	.	2r	.	.	.	.	.	.	2r	.	.	.	.	.	.	2r	.	.	.	.	.	.
!LO:TX:t=P:problem=kreska pseudotaktowa	!	!	!	!	!	!	!	!	!	!	!	!	!	!	!	!	!	!	!	!	!LO:TX:t=P:problem=kreska pseudotaktowa	!	!	!	!	!	!
2G\	Ni-	Iſ-	Quar-	Ad-	Nau-	O	2G/	Ni-	Iſ-	Quar-	Ad-	Nau-	O	2G/	Ni-	Iſ-	Quar-	Ad-	Nau-	O	2g\	Ni-	Iſ-	Quar-	Ad-	Nau-	O
2G\	-co-	-te	-ta	-huc	-tae	Pa-	2B\	-co-	-te	-ta	-huc	-tae	Pa-	2d\	-co-	-te	-ta	-huc	-tae	Pa-	2g\	-co-	-te	-ta	-huc	-tae	Pa-
!LO:TX:t=P:problem=kreska pseudotaktowa	!	!	!	!	!	!	!LO:TX:t=P:problem=kreska pseudotaktowa	!	!	!	!	!	!	!	!	!	!	!	!	!	!LO:TX:t=P:problem=kreska pseudotaktowa	!	!	!	!	!	!
2G\	-lai	puer	et	in	qui-	-ter	2d\	-lai	puer	et	in	qui-	-ter	2B/	-lai	puer	et	in	qui-	-ter	2d\	-lai	puer	et	in	qui-	-ter
=2-	=2-	=2-	=2-	=2-	=2-	=2-	=2-	=2-	=2-	=2-	=2-	=2-	=2-	=2-	=2-	=2-	=2-	=2-	=2-	=2-	=2-	=2-	=2-	=2-	=2-	=2-	=2-
!	!	!	!	!	!	!	!	!	!	!	!	!	!	!LO:TX:t=P:problem=kreska pseudotaktowa	!	!	!	!	!	!	!LO:TX:t=P:problem=kreska pseudotaktowa	!	!	!	!	!	!
4C/	.	.	Sex-	cu-	-dam	at-	1c	.	.	Sex-	cu-	-dam	.	1e	So-	.	Sex-	cu-	-dam	.	1g	So-	.	Sex-	cu-	.	at-
4D/	.	.	.	.	.	.	.	.	.	.	.	.	.	.	.	.	.	.	.	.	.	.	.	.	.	.	.
4E/	.	.	.	.	.	.	.	.	.	.	.	.	.	.	.	.	.	.	.	.	.	.	.	.	.	.	.
!LO:TX:t=P:problem=kreska pseudotaktowa	!	!	!	!	!	!	!	!	!	!	!	!	!	!	!	!	!	!	!	!	!	!	!	!	!	!	!
4F/	.	.	.	.	.	.	.	.	.	.	.	.	.	.	.	.	.	.	.	.	.	.	.	.	.	.	.
2G\	So-	mi-	.	-nis	na-	-que	2B\	So-	mi-	-ta	-nis	.	at-	2d\	-lem-	mi-	-ta	-nis	.	at-	2g\	-lem-	.	-ta	.	-dam	-que
1F\	-lem-	-ra-	-ta	.	-ui-	.	1A\	-lem-	-ra-	.	ia-	na-	-que	1c\	-ni-	-ra-	.	.	na-	-que	2d\	-nia	.	.	-nis	.	.
=3-	=3-	=3-	=3-	=3-	=3-	=3-	=3-	=3-	=3-	=3-	=3-	=3-	=3-	=3-	=3-	=3-	=3-	=3-	=3-	=3-	=3-	=3-	=3-	=3-	=3-	=3-	=3-
!	!	!	!	!	!	!	!	!	!	!	!	!	!	!	!	!	!	!	!	!	!LO:TX:t=P:problem=4\right&colon; global	!	!	!	!	!	!
.	.	.	.	.	.	.	.	.	.	.	.	.	.	.	.	.	.	.	.	.	4f\	.	mi-	.	ia-	na-	Pa-
.	.	.	.	.	.	.	.	.	.	.	.	.	.	.	.	.	.	.	.	.	4e\	.	.	.	.	.	.
!LO:TX:t=P:problem=kreska pseudotaktowa	!	!	!	!	!	!	!	!	!	!	!	!	!	!LO:TX:t=P:problem=kreska pseudotaktowa	!	!	!	!	!	!	!	!	!	!	!	!	!
2G\	-nia	-bi-	fe-	ia-	-gan-	Pa-	1G	-ni-	-bi-	Fe-	.	-ui-	Pa-	2B/	.	-bi-	fe-	ia-	-ui-	Pa-	4d\	.	-ra-	fe-	.	-ui-	-tro-
!	!	!	!	!	!	!	!	!	!	!	!	!	!	!	!	!	!	!	!	!	!LO:TX:t=P:problem=kreska pseudotaktowa	!	!	!	!	!	!
.	.	.	.	.	.	.	.	.	.	.	.	.	.	.	.	.	.	.	.	.	4c/	.	.	.	.	.	.
1D	.	-lis	-ria	-cuit	-tes	-tro-	.	.	.	.	.	.	.	1A	-a	-lis	-ria	-cuit	-gan-	-tro-	1d	.	.	.	-cuit	-gan-	.
!	!	!	!	!	!	!	!LO:TX:t=P:problem=kreska pseudotaktowa	!	!	!	!	!	!	!	!	!	!	!	!	!	!	!	!	!	!	!	!
.	.	.	.	.	.	.	2F#X/	-a	-lis	.	-cuit	-gan-	-tro-	.	.	.	.	.	.	.	.	.	.	.	.	.	.
=4-	=4-	=4-	=4-	=4-	=4-	=4-	=4-	=4-	=4-	=4-	=4-	=4-	=4-	=4-	=4-	=4-	=4-	=4-	=4-	=4-	=4-	=4-	=4-	=4-	=4-	=4-	=4-
2G,\	.	.	.	.	.	-ne	2G,/	.	.	-ria	.	-tes	-ne	2G/	.	.	.	Al-	-tes	-ne	2d\	Sua	-bi-	-ria	.	-tes	-ne
!LO:TX:t=P:problem=kreska pseudotaktowa	!	!	!	!	!	!	!	!	!	!	!	!	!	!LO:TX:t=P:problem=kreska pseudotaktowa	!	!	!	!	!	!	!LO:TX:t=P:problem=kreska pseudotaktowa	!	!	!	!	!	!
2G\	Sua	ab	Se-	Al-	Ad	Te	2B\	Sua	ab	Se-	Al-	Ad	Te	2d\	Sua	ab	Se-	-tiſ-	Ad	Te	2g\	.	-lis	.	.	.	.
2C/	.	om-	-mel	-tiſ-	Ni-	ro-	2c\	.	om-	-mel	-tiſ-	.	.	2e\	.	om-	-mel	-si-	Ni-	ro-	2g\	pre-	ab	Se-	Al-	Ad	Te
!LO:TX:t=P:problem=kreska pseudotaktowa	!	!	!	!	!	!	!LO:TX:t=P:problem=kreska pseudotaktowa	!	!	!	!	!	!	!	!	!	!	!	!	!	!LO:TX:t=P:problem=kreska pseudotaktowa	!	!	!	!	!	!
2C/	Pre-	-ni-	Su-	-si-	-co-	-ga-	2c\	pre-	-ni-	.	-si-	.	ro-	2e\	pre-	-ni-	Su-	-mo	-co-	-ga-	2g\	-ce	om-	-mel	-tiſ-	Ni-	ro-
=5-	=5-	=5-	=5-	=5-	=5-	=5-	=5-	=5-	=5-	=5-	=5-	=5-	=5-	=5-	=5-	=5-	=5-	=5-	=5-	=5-	=5-	=5-	=5-	=5-	=5-	=5-	=5-
2G\	-ce	-bus	.	-mo	-laum	-mus	2B\	-ce	-bus	Su-	-mo	Ni-	-ga-	2d\	-ce	-bus	-ge-	.	-laum	-mus	4g\	fa-	-ni-	Su-	-si-	-co-	-ga-
.	.	.	.	.	.	.	.	.	.	.	.	.	.	.	.	.	.	.	.	.	4f\	.	.	.	.	.	.
2.C/	fa-	a-	-ge-	com-	.	.	1e	fa-	a-	-ge-	com-	-co-	-mus	1g	fa-	a-	-bat	com-	.	.	4e\	.	-bus	-ge-	-mo	-laum	-mus
.	.	.	.	.	.	.	.	.	.	.	.	.	.	.	.	.	.	.	.	.	4d\	.	.	.	.	.	.
.	.	.	.	.	.	.	.	.	.	.	.	.	.	.	.	.	.	.	.	.	2c/	.	a-	.	com-	.	in
4D/	.	.	.	.	.	in	.	.	.	.	.	.	.	.	.	.	.	.	.	.	.	.	.	.	.	.	.
!	!	!	!	!	!	!	!LO:TX:t=P:problem=4\right&colon; global	!	!	!	!	!	!	!LO:TX:t=P:problem=4\right&colon; global	!	!	!	!	!	!	!	!	!	!	!	!	!
4E/	.	.	.	.	.	.	4d\	.	.	-bat	.	-laum	.	4fn\	.	.	.	.	.	in	1g\	.	.	-bat	.	.	hac
!	!	!	!	!	!	!	!LO:TX:t=P:problem=kreska pseudotaktowa	!	!	!	!	!	!	!LO:TX:t=P:problem=kreska pseudotaktowa	!	!	!	!	!	!	!	!	!	!	!	!	!
4F/	.	.	.	.	.	.	4c\	.	.	.	.	.	.	4e\	.	.	.	.	.	.	.	.	.	.	.	.	.
=6-	=6-	=6-	=6-	=6-	=6-	=6-	=6-	=6-	=6-	=6-	=6-	=6-	=6-	=6-	=6-	=6-	=6-	=6-	=6-	=6-	=6-	=6-	=6-	=6-	=6-	=6-	=6-
!	!	!	!	!	!	!	!LO:SIC:l:v:s=U:verse 3	!	!	!	!	!	!	!LO:SIC:l:v:s=U:verse 3	!	!	!	!	!	!	!	!	!	!	!	!	!
2G\	.	.	-bat	.	cla-	hac	2B\	.	-ma-	V-	-pla-	cla-	in	2d\	.	-ma-	V-	-pla-	cla-	hac	.	.	.	.	.	.	.
!LO:SIC:l:v:s=U:verse 3	!	!	!	!	!	!	!	!	!	!	!	!	!	!	!	!	!	!	!	!	!	!	!	!	!	!	!
!LO:TX:t=P:problem=kreska pseudotaktowa	!	!	!	!	!	!	!	!	!	!	!	!	!	!	!	!	!	!	!	!	!LO:SIC:l:v:s=U:verse 3	!	!	!	!	!	!
2A\	-mi-	ma-	V-	-pla-	-man-	.	1c	-mi-	-bi-	-be-	-cuit	-man-	hac	2c/	-mi-	.	.	-cuit	-man-	.	2fn\	.	-ma-	V-	-pla-	cla-	.
!	!	!	!	!	!	!	!	!	!	!	!	!	!	!	!	!	!	!	!	!	!LO:TX:t=P:problem=kreska pseudotaktowa	!	!	!	!	!	!
1G	-lia	-bi-	-be-	-cuit	-tes.	die	.	.	.	.	.	.	.	1d	-lia	-bi-	-be-	.	-tes	die	1g	-mi-	-bi-	-be-	-cuit	-man-	die
.	.	.	.	.	.	.	2B\	-lia	-lis	-ra	.	-tes	die	.	.	.	.	.	.	.	.	.	.	.	.	.	.
=7-	=7-	=7-	=7-	=7-	=7-	=7-	=7-	=7-	=7-	=7-	=7-	=7-	=7-	=7-	=7-	=7-	=7-	=7-	=7-	=7-	=7-	=7-	=7-	=7-	=7-	=7-	=7-
*custos:C	*	*	*	*	*	*	*custos:e	*	*	*	*	*	*	*custos:c	*	*	*	*	*	*	*custos:g	*	*	*	*	*	*
!LO:TX:t=P:problem=kreska pseudotaktowa	!	!	!	!	!	!	!LO:TX:t=P:problem=kreska pseudotaktowa	!	!	!	!	!	!	!LO:TX:t=P:problem=kreska pseudotaktowa	!	!	!	!	!	!	!LO:TX:t=P:problem=kreska pseudotaktowa	!	!	!	!	!	!
1C	.	-lis	-ra	.	.	.	1c	.	.	.	.	.	.	1c	.	-lis	-ra	.	.	.	1e	-lia.	-lis	-ra	.	-tes	.
!LO:TX:t=P:problem=kreska pseudotaktowa	!	!	!	!	!	!	!	!	!	!	!	!	!	!	!	!	!	!	!	!	!LO:TX:t=P:problem=kreska pseudotaktowa	!	!	!	!	!	!
1C	De-	Dans	Nam	Tres	Pa-	De	1e	De-	Dans	Nam	Tre.	Pa-	De	1c	De-	Dans	Nam	Tres	Pa-	De	1g	De-	Dans	Nam	Tres	Pa-	De
=8-	=8-	=8-	=8-	=8-	=8-	=8-	=8-	=8-	=8-	=8-	=8-	=8-	=8-	=8-	=8-	=8-	=8-	=8-	=8-	=8-	=8-	=8-	=8-	=8-	=8-	=8-	=8-
2C/	-can-	.	in	.	-ter	.	2e\	-can-	.	.	.	-ter	.	2c/	-can-	.	.	puel-	-ter	hac	2g\	.	.	.	.	-ter	hac
!LO:TX:t=P:problem=kreska pseudotaktowa	!	!	!	!	!	!	!LO:TX:t=P:problem=kreska pseudotaktowa	!	!	!	!	!	!	!LO:TX:t=P:problem=kreska pseudotaktowa	!	!	!	!	!	!	!LO:TX:t=P:problem=kreska pseudotaktowa	!	!	!	!	!	!
2C/	-tet	Vir-	ae-	puel-	.	hac	2e\	-tet	.	in	puel-	.	hac	2c/	-tet	Vir-	in	-las	.	mun-	2g\	-can-	Vir-	in	puel-	.	.
2G\	in	-tu-	-ta-	-las	San-	mun-	2d\	.	Vir-	ae-	.	San-	mun-	2B/	.	-tu-	ae-	.	San-	-di	2g\	-tet	-tu-	ae-	-las	.	mun-
!	!	!	!	!	!	!	!	!	!	!	!	!	!	!	!	!	!	!	!	!	!LO:TX:t=P:problem=kreska pseudotaktowa	!	!	!	!	!	!
2A\	.	-tum	-te	.	-cte	-di	2c\	in	-tu-	-ta-	-las	-cte	-di	2c/	in	-tum	-ta-	.	-cte	.	2e\	.	-tum	-ta-	.	San-	-di
=9-	=9-	=9-	=9-	=9-	=9-	=9-	=9-	=9-	=9-	=9-	=9-	=9-	=9-	=9-	=9-	=9-	=9-	=9-	=9-	=9-	=9-	=9-	=9-	=9-	=9-	=9-	=9-
1.G	Ec-	pri-	te-	li-	Ni-	mi-	2.B\	Ec-	-tum	-te	.	.	.	2.d\	Ec-	pri-	-te	li-	Ni-	mi-	2.g\	in	.	-te	.	-cte	.
!	!	!	!	!	!	!	!LO:TX:t=P:problem=kreska pseudotaktowa	!	!	!	!	!	!	!LO:TX:t=P:problem=kreska pseudotaktowa	!	!	!	!	!	!	!LO:TX:t=P:problem=kreska pseudotaktowa	!	!	!	!	!	!
.	.	.	.	.	.	.	4A/	-cle-	.	.	li-	Ni-	.	4c/	-cle-	.	te-	.	.	-ſe-	4f\	.	.	.	li-	.	.
.	.	.	.	.	.	.	2B\	.	pri-	te-	.	.	mi-	2B/	.	-mor	.	.	.	.	4d\	Ec-	pri-	.	.	Ni-	mi-
.	.	.	.	.	.	.	.	.	.	.	.	.	.	.	.	.	.	.	.	.	4e\	.	.	.	-be-	.	.
!	!	!	!	!	!	!	!	!	!	!	!	!	!	!	!	!	!	!	!	!	!LO:TX:t=P:problem=kreska pseudotaktowa	!	!	!	!	!	!
2F/	-cle-	.	.	-be-	-co-	-ſe-	1A\	.	-mor	.	.	.	.	2A/	.	.	.	.	.	.	2f\	.	-mor	te-	.	.	-ſe-
=10-	=10-	=10-	=10-	=10-	=10-	=10-	=10-	=10-	=10-	=10-	=10-	=10-	=10-	=10-	=10-	=10-	=10-	=10-	=10-	=10-	=10-	=10-	=10-	=10-	=10-	=10-	=10-
2G\	.	-mor	-ne-	-ra	-lae	-ria	.	.	.	.	.	.	.	2B/	.	.	.	be-	.	.	2d\	-cle-	.	.	.	.	.
!LO:TX:t=P:problem=kreska pseudotaktowa	!	!	!	!	!	!	!	!	!	!	!	!	!	!LO:TX:t=P:problem=kreska pseudotaktowa	!	!	!	!	!	!	!	!	!	!	!	!	!
2C/	-ſia	dia	-ra	uit	.	.	1G	.	.	.	-be-	-co-	-ſe-	2c/	.	.	-ne-	-ra	-co-	-ria	2e\	-ſia	.	-ne-	-ra	-co-	-ria
!LO:TX:t=P:problem=kreska pseudotaktowa	!	!	!	!	!	!	!	!	!	!	!	!	!	!	!	!	!	!	!	!	!LO:TX:t=P:problem=kreska pseudotaktowa	!	!	!	!	!	!
1D	.	.	.	.	.	.	.	.	.	.	.	.	.	1A	-ſia	dia	-ra	uit	-lae	.	1d	.	dia	-ra	uit	-lae	.
!	!	!	!	!	!	!	!LO:TX:t=P:problem=kreska pseudotaktowa	!	!	!	!	!	!	!	!	!	!	!	!	!	!	!	!	!	!	!	!
.	.	.	.	.	.	.	2F#X/	-ſia	dia.	-ne-	-ra	-lae	-ria	.	.	.	.	.	.	.	.	.	.	.	.	.	.
=11-	=11-	=11-	=11-	=11-	=11-	=11-	=11-	=11-	=11-	=11-	=11-	=11-	=11-	=11-	=11-	=11-	=11-	=11-	=11-	=11-	=11-	=11-	=11-	=11-	=11-	=11-	=11-
2r	.	.	.	.	.	.	0G	.	.	-ra	uit	.	.	1G	.	.	.	.	.	.	2B/	.	.	.	.	.	.
2G\	Cum	In-	Hâc	Au-	Nos	Duc	.	.	.	.	.	.	.	.	.	.	.	.	.	.	2d\	Cum	in-	Hâc	Au-	Nos	Duc
2c\	.	-ter	.	-ro	.	.	.	.	.	.	.	.	.	2r	.	.	.	.	.	.	2e\	.	-ter	.	-ro	.	.
!	!	!	!	!	!	!	!	!	!	!	!	!	!	!	!	!	!	!	!	!	!LO:SIC:l:v:s=U:verse 3	!	!	!	!	!	!
!LO:TX:t=P:problem=kreska pseudotaktowa	!	!	!	!	!	!	!	!	!	!	!	!	!	!LO:TX:t=P:problem=kreska pseudotaktowa	!	!	!	!	!	!	!LO:TX:t=P:problem=kreska pseudotaktowa	!	!	!	!	!	!
2B\	can-	ar-	V-	eas	ad	nos	.	.	.	.	.	.	.	2G/	Cum	In-	Hâc	Au-	Nos	Duc	2d\	can-	ar-	V-	eas	ad	nos
=12-	=12-	=12-	=12-	=12-	=12-	=12-	=12-	=12-	=12-	=12-	=12-	=12-	=12-	=12-	=12-	=12-	=12-	=12-	=12-	=12-	=12-	=12-	=12-	=12-	=12-	=12-	=12-
2c\	-ti-	-tus	-ſus	.	por-	ad	2r	.	.	.	.	.	.	2c/	.	-ter	.	-ro	.	.	2e\	-ti-	-tus	-sus	.	.	.
!	!	!	!	!	!	!	!LO:TX:t=P:problem=kreska pseudotaktowa	!	!	!	!	!	!	!LO:SIC:l:v:s=U:verse 3	!	!	!	!	!	!	!	!	!	!	!	!	!
2G\	-co	tri-	ab-	con-	-tum	cae-	2G/	Cum	In-	Hâc	Au-	Nos	Duc	2B/	can-	ar-	V-	eas	ad	nos	2B/	-co	.	ab-	con-	por-	ad
!	!	!	!	!	!	!	!LO:SIC:l:v:s=U:verse 3	!	!	!	!	!	!	!	!	!	!	!	!	!	!	!	!	!	!	!	!
2C/	lae-	-pu-	-sti-	-do-	ma-	-li	2c\	can-	-ter	V-	-ro	.	.	2c/	-ti-	-tus	-ſus	.	por-	ad	2c/	lae-	tri-	-ſti-	-do-	-tum	.
!LO:TX:t=P:problem=kreska pseudotaktowa	!	!	!	!	!	!	!	!	!	!	!	!	!	!LO:TX:t=P:problem=kreska pseudotaktowa	!	!	!	!	!	!	!LO:TX:t=P:problem=kreska pseudotaktowa	!	!	!	!	!	!
2G\	-ti-	-dia	-nen-	-na-	-ris	gau-	2B\	-ti-	ar-	-ſus	eas	ad	nos	2d\	-co	tri-	ab-	con-	-tum	.	2B/	-ti-	-pu-	-nen-	-na-	.	cae-
=13-	=13-	=13-	=13-	=13-	=13-	=13-	=13-	=13-	=13-	=13-	=13-	=13-	=13-	=13-	=13-	=13-	=13-	=13-	=13-	=13-	=13-	=13-	=13-	=13-	=13-	=13-	=13-
*	*	*ij	*	*	*	*	*	*	*	*	*	*	*	*	*	*	*	*	*	*	*	*	*	*	*	*	*
2C/	-tae	.	-tia	-uit	tra-	-dia	2c\	-co	-tus	abſ-	.	por-	ad	2e\	lae-	-pu-	-ſti-	-do-	.	cae-	2c/	-tiae	-dia	-tia	-uit	ma-	-li
!	!	!	!	!	!	!	!LO:TX:t=P:problem=kreska pseudotaktowa	!	!	!	!	!	!	!	!	!	!	!	!	!	!	!	!	!	!	!	!
*	*ij	*ij	*ij	*ij	*	*ij	*	*	*	*	*	*	*	*	*	*	*	*	*	*	*	*ij	*ij	*ij	*ij	*	*
2G\	le-	tri-	abs-	con-	-he	gau-	2d\	lae-	tri-	-ti-	con-	-tum	cae-	2d\	-ti-	-dia	-nen-	-na-	ma-	-li	2g\	lae-	tri-	ab-	con-	-ris	gau-
*	*	*	*	*	*ij	*	*	*	*	*	*	*	*	*	*	*ij	*	*	*	*	*	*	*	*	*	*	*
1.c	.	.	-ti-	-do-	tra-	.	1.e	.	-pu-	-nen-	-do-	ma-	-li	1c	-tiae	tri-	-tia	-uit	-ris	gau-	2e\	.	.	.	.	.	.
!	!	!	!	!	!	!	!	!	!	!	!	!	!	!	!	!	!	!	!	!	!LO:TX:t=P:problem=kreska pseudotaktowa	!	!	!	!	!	!
.	.	.	.	.	.	.	.	.	.	.	.	.	.	.	.	.	.	.	.	.	2e\	.	.	.	.	.	-dia
=14-	=14-	=14-	=14-	=14-	=14-	=14-	=14-	=14-	=14-	=14-	=14-	=14-	=14-	=14-	=14-	=14-	=14-	=14-	=14-	=14-	=14-	=14-	=14-	=14-	=14-	=14-	=14-
*	*	*	*	*	*	*	*	*	*	*	*	*	*	*	*	*	*	*	*	*	*	*	*	*	*	*	*ij
.	.	.	.	.	.	.	.	.	.	.	.	.	.	1.g	.	.	ab-	.	tra-	-dia	4c/	.	.	.	.	tra-	gau
.	.	.	.	.	.	.	.	.	.	.	.	.	.	.	.	.	.	.	.	.	4d\	.	.	.	.	.	.
!LO:TX:t=P:problem=4\right&colon; global	!	!	!	!	!	!	!	!	!	!	!	!	!	!	!	!	!	!	!	!	!	!	!	!	!	!	!
4B\	.	.	.	.	.	.	4d\	.	.	.	.	-ris	gau-	.	.	.	.	.	.	.	4e\	.	.	.	.	-he	.
!LO:TX:t=P:problem=kreska pseudotaktowa	!	!	!	!	!	!	!LO:TX:t=P:problem=kreska pseudotaktowa	!	!	!	!	!	!	!	!	!	!	!	!	!	!	!	!	!	!	!	!
4A\	.	.	.	.	.	.	4c\	.	.	.	.	.	.	.	.	.	.	.	.	.	4f\	.	.	.	.	.	.
*	*	*	*	*	*	*	*	*	*	*	*	*	*	*	*	*	*	*ij	*	*ij	*	*	*	*	*	*ij	*
2G\	.	.	.	.	.	.	2B\	.	.	.	.	.	.	.	.	.	.	.	.	.	2g\	.	.	.	.	tra-	.
!	!	!	!	!	!	!	!	!	!	!	!	!	!	!LO:TX:t=P:problem=kreska pseudotaktowa	!	!	!	!	!	!	!	!	!	!	!	!	!
2F/	.	.	.	.	.	.	1d\	.	.	.	.	.	.	2d\	Lae-	.	.	con-	-he	gau-	1a\	.	.	-ſti-	-do-	.	.
=15-	=15-	=15-	=15-	=15-	=15-	=15-	=15-	=15-	=15-	=15-	=15-	=15-	=15-	=15-	=15-	=15-	=15-	=15-	=15-	=15-	=15-	=15-	=15-	=15-	=15-	=15-	=15-
*	*	*	*	*	*	*	*	*	*	*	*	*	*	*	*	*	*	*	*ij	*	*	*	*	*	*	*	*
2A\	.	.	.	.	.	.	.	.	.	.	.	.	.	2e\	.	.	-ſti-	-do-	tra-	.	.	.	.	.	.	.	.
2F/	-ti-	-pu-	-nen-	-na-	.	.	1c	-ti-	-dia	-tia.	-na-	tra-	-dia.	2f\	-ti-	-pu-	-nen-	-na-	.	.	2a\	-ti-	pu-	-nen-	-na-	.	.
1G	-tae	-dia	-tia	-uit	-he	-dia	.	.	.	.	.	.	.	1d	-tiae	-dia	-tia.	-uit	-he	-dia	1g	-tiae	-dia	-tia	-uit	-he	dia
.	.	.	.	.	.	.	2B\	-tiae.	.	.	-uit	-he.	.	.	.	.	.	.	.	.	.	.	.	.	.	.	.
=16-	=16-	=16-	=16-	=16-	=16-	=16-	=16-	=16-	=16-	=16-	=16-	=16-	=16-	=16-	=16-	=16-	=16-	=16-	=16-	=16-	=16-	=16-	=16-	=16-	=16-	=16-	=16-
0Cl	.	.	.	.	.	.	0cl	.	.	.	.	.	.	0cl	.	.	.	.	.	.	0gl;;	.	.	.	.	.	.
*	*Xij	*Xij	*Xij	*Xij	*Xij	*Xij	*	*	*	*	*	*	*	*	*	*	*	*	*	*	*	*Xij	*Xij	*Xij	*Xij	*Xij	*Xij
==	==	==	==	==	==	==	==	==	==	==	==	==	==	==	==	==	==	==	==	==	==	==	==	==	==	==	==
*-	*-	*-	*-	*-	*-	*-	*-	*-	*-	*-	*-	*-	*-	*-	*-	*-	*-	*-	*-	*-	*-	*-	*-	*-	*-	*-	*-
!!!system-decoration: [(s1,s2,s3,s4)]
!!!RDF**kern: > = above
!!!RDF**kern: < = below
!!!RDF**kern: l = terminal long
!!!EED: Mateusz Mrugas
!!!EEV: 2021-03-21
!!!ENC: Anastazja Marusiak
!!!END: 2021-03-08
!!!YEC: Copyright 2022 Narodowy Instytut Fryderyka Chopina (https://polishscores.org)
!!!YEM: License CC-BY-4.0 (https://creativecommons.org/licenses/by/4.0)
